packages/sources/assets/src/assets/flag-mo.svg

<svg width="28" height="20" viewBox="0 0 28 20" fill="none" xmlns="http://www.w3.org/2000/svg">
<rect width="28" height="20" rx="2" fill="white"/>
<mask id="mask0_503_4913" style="mask-type:alpha" maskUnits="userSpaceOnUse" x="0" y="0" width="28" height="20">
<rect width="28" height="20" rx="2" fill="white"/>
</mask>
<g mask="url(#mask0_503_4913)">
<path fill-rule="evenodd" clip-rule="evenodd" d="M0 20H28V0H0V20Z" fill="#079D7B"/>
<path fill-rule="evenodd" clip-rule="evenodd" d="M15.8849 8.66669C15.8849 8.95855 15.8637 9.24165 15.8238 9.51143C15.9261 9.48 16.0302 9.45002 16.1361 9.42165C17.9143 8.94517 19.5015 9.10238 19.6811 9.77279C19.8435 10.3787 18.8006 11.1964 17.2858 11.6999C17.0182 10.9062 15.6488 10.6667 13.9998 10.6667C12.349 10.6667 10.9785 10.9067 10.713 11.7025C9.21866 11.198 8.19451 10.3889 8.3555 9.7881C8.53513 9.1177 10.1223 8.96049 11.9005 9.43696C11.9939 9.46198 12.0859 9.48824 12.1765 9.51566C12.1362 9.24461 12.1148 8.96008 12.1148 8.66669C12.1148 6.82574 12.9587 5.33336 13.9998 5.33336C15.0409 5.33336 15.8849 6.82574 15.8849 8.66669ZM10.6665 12L11.833 12C11.6482 11.9638 11.4597 11.9204 11.2689 11.8698C11.4835 11.8761 11.748 11.8944 12.0508 11.9154C12.5989 11.9534 13.2721 12 13.9998 12C14.7275 12 15.4007 11.9534 15.9488 11.9154C16.2402 11.8952 16.4962 11.8775 16.7063 11.8705C16.5088 11.9215 16.314 11.9646 16.1235 12L17.3332 12L19.3332 12C19.175 12.4747 18.9622 12.922 18.7027 13.3334H9.297C9.03748 12.922 8.82463 12.4747 8.66649 12L10.6665 12ZM13.9996 16C15.3463 16 16.5831 15.5005 17.5544 14.6667H10.4448C11.4161 15.5005 12.6529 16 13.9996 16Z" fill="white"/>
<path fill-rule="evenodd" clip-rule="evenodd" d="M14.0002 4.00001C14.3684 4.00001 14.6668 3.70153 14.6668 3.33334C14.6668 2.96515 14.3684 2.66667 14.0002 2.66667C13.632 2.66667 13.3335 2.96515 13.3335 3.33334C13.3335 3.70153 13.632 4.00001 14.0002 4.00001ZM8.66667 7.33334C9.03486 7.33334 9.33333 7.03486 9.33333 6.66667C9.33333 6.29848 9.03486 6.00001 8.66667 6.00001C8.29848 6.00001 8 6.29848 8 6.66667C8 7.03486 8.29848 7.33334 8.66667 7.33334ZM19.9998 6.66665C19.9998 7.03484 19.7014 7.33332 19.3332 7.33332C18.965 7.33332 18.6665 7.03484 18.6665 6.66665C18.6665 6.29846 18.965 5.99998 19.3332 5.99998C19.7014 5.99998 19.9998 6.29846 19.9998 6.66665ZM17.3332 5.33332C17.7014 5.33332 17.9998 5.03484 17.9998 4.66665C17.9998 4.29846 17.7014 3.99998 17.3332 3.99998C16.965 3.99998 16.6665 4.29846 16.6665 4.66665C16.6665 5.03484 16.965 5.33332 17.3332 5.33332ZM11.3333 4.66667C11.3333 5.03486 11.0349 5.33334 10.6667 5.33334C10.2985 5.33334 10 5.03486 10 4.66667C10 4.29848 10.2985 4.00001 10.6667 4.00001C11.0349 4.00001 11.3333 4.29848 11.3333 4.66667Z" fill="#FCD117"/>
</g>
</svg>

<svg width="28" height="20" fill="none" xmlns="http://www.w3.org/2000/svg"><rect width="28" height="20" rx="2" fill="#fff"/><mask id="a" style="mask-type:alpha" maskUnits="userSpaceOnUse" x="0" y="0" width="28" height="20"><rect width="28" height="20" rx="2" fill="#fff"/></mask><g mask="url(#a)" fill-rule="evenodd" clip-rule="evenodd"><path d="M0 20h28V0H0v20Z" fill="#079D7B"/><path d="M15.885 8.667c0 .292-.021.575-.061.844.102-.031.206-.061.312-.09 1.778-.476 3.366-.319 3.545.352.162.606-.88 1.423-2.395 1.927-.268-.794-1.637-1.033-3.286-1.033-1.651 0-3.021.24-3.287 1.036-1.494-.505-2.518-1.314-2.357-1.915.18-.67 1.766-.828 3.544-.351.094.025.186.051.277.079a5.782 5.782 0 0 1-.062-.85c0-1.84.844-3.333 1.885-3.333 1.04 0 1.885 1.493 1.885 3.334ZM10.666 12h1.167a8.81 8.81 0 0 1-.564-.13c.214.006.479.024.782.045.548.038 1.221.085 1.949.085.727 0 1.4-.047 1.949-.085.291-.02.547-.037.757-.044a8.667 8.667 0 0 1-.582.129h3.21a6.134 6.134 0 0 1-.631 1.333H9.297A6.13 6.13 0 0 1 8.667 12h2ZM14 16c1.346 0 2.583-.5 3.554-1.333h-7.11A5.436 5.436 0 0 0 14 16Z" fill="#fff"/><path d="M14 4a.667.667 0 1 0 0-1.333A.667.667 0 0 0 14 4ZM8.667 7.333a.667.667 0 1 0 0-1.333.667.667 0 0 0 0 1.333ZM20 6.667a.667.667 0 1 1-1.333 0 .667.667 0 0 1 1.333 0Zm-2.667-1.334a.667.667 0 1 0 0-1.333.667.667 0 0 0 0 1.333Zm-6-.666a.667.667 0 1 1-1.333 0 .667.667 0 0 1 1.333 0Z" fill="#FCD117"/></g></svg>
